Sources/FrostedUI/Resources/Icons.xcassets/illuminati12.imageset/illuminati-12.svg

<svg width="12" height="12" viewBox="0 0 12 12" fill="none" xmlns="http://www.w3.org/2000/svg" data-fui-icon="true">
  <path
    d="M4.5094 1.49146C5.19274 0.38103 6.80651 0.381049 7.48987 1.49146L11.7008 8.33325C12.418 9.49918 11.5785 11.0002 10.2096 11.0002H1.78967C0.421054 11 -0.418368 9.49904 0.298462 8.33325L4.5094 1.49146ZM9.06995 7.01001C8.92873 7.23823 8.60365 7.71645 8.11194 8.14478C7.62112 8.57222 6.90462 9.00024 5.99963 9.00024C5.09466 9.00013 4.37809 8.57224 3.88733 8.14478C3.39551 7.71633 3.07044 7.23811 2.92932 7.01001C2.91955 6.9942 2.91173 6.97738 2.90295 6.96118L1.57581 9.11938C1.47405 9.28576 1.59456 9.49997 1.78967 9.50024H10.2096C10.405 9.50024 10.5256 9.28591 10.4235 9.11938L9.09534 6.96118C9.08666 6.97716 9.07959 6.99441 9.06995 7.01001ZM5.99963 5.50024C5.58735 5.50036 5.20804 5.69451 4.87268 5.98657C4.67825 6.15598 4.5186 6.34272 4.39905 6.50024C4.51863 6.6578 4.6782 6.84448 4.87268 7.01392C5.20804 7.30598 5.58735 7.50013 5.99963 7.50024C6.41194 7.50024 6.79119 7.30593 7.12659 7.01392C7.32084 6.84471 7.47969 6.65768 7.59924 6.50024C7.47968 6.34277 7.3209 6.15583 7.12659 5.98657C6.79116 5.6945 6.41199 5.50024 5.99963 5.50024ZM6.21252 2.27759C6.11489 2.11899 5.88436 2.11896 5.78674 2.27759L4.45178 4.44556C4.87664 4.19178 5.3958 4.00032 5.99963 4.00024C6.60283 4.00024 7.12188 4.19126 7.54651 4.44458L6.21252 2.27759Z"
    fill="currentColor"
  />
</svg>

<svg xmlns="http://www.w3.org/2000/svg" width="12" height="12" fill="none" data-fui-icon="true" viewBox="0 0 12 12"><path fill="currentColor" d="M4.51 1.491a1.75 1.75 0 0 1 2.98 0l4.21 6.842C12.419 9.5 11.58 11 10.21 11H1.79C.42 11-.418 9.5.298 8.333zM9.07 7.01a5.1 5.1 0 0 1-.958 1.135C7.622 8.572 6.905 9 6 9s-1.622-.428-2.113-.855A5.1 5.1 0 0 1 2.93 7.01q-.014-.025-.026-.049L1.576 9.12a.25.25 0 0 0 .214.381h8.42a.25.25 0 0 0 .213-.38L9.096 6.96q-.011.025-.025.049M6 5.5c-.413 0-.792.195-1.127.487-.195.169-.354.356-.474.513.12.158.28.344.474.514.335.292.714.486 1.127.486.412 0 .791-.194 1.127-.486a3.5 3.5 0 0 0 .472-.514 3.5 3.5 0 0 0-.472-.513C6.79 5.694 6.412 5.5 6 5.5m.213-3.222a.25.25 0 0 0-.426 0L4.452 4.446A3 3 0 0 1 6 4c.603 0 1.122.191 1.547.445z"/></svg>
